lib/brands/logos/haiku.svg

<svg xmlns="http://www.w3.org/2000/svg" fill="none" aria-hidden="true" viewBox="0 0 218 63"><g id="Haiku"><g id="Group"><path id="Vector" fill="black" d="M116.901 20.7168C126.33 20.7168 130.08 24.0384 130.08 29.878V44.0215C130.08 46.5932 130.188 48.4683 131.045 50.5576H120.759C120.223 49.7541 119.848 48.7897 119.633 47.7718C117.758 50.3433 115.133 51.3076 111.544 51.3076C105.49 51.3076 102.061 47.6111 102.061 42.4143C102.061 36.6819 105.329 33.4138 114.705 32.2352L119.366 31.6459V30.5209C119.366 28.5386 118.83 27.735 116.741 27.735C114.651 27.735 113.901 28.5921 113.847 30.4136H103.186C103.4 24.1991 108.222 20.7168 116.901 20.7168ZM192.483 21.5204V38.4498C192.483 41.2893 193.608 42.2 195.589 42.2C198.161 42.2 199.715 40.057 199.715 37.2176V21.5204H210.429V50.5576H200.25V46.9146C198 49.9148 195.322 51.3076 191.25 51.3076C186.161 51.3076 181.767 48.3611 181.767 41.075V21.5204H192.483ZM75.9504 13.0556V26.6099H87.2009V13.0556H98.5588V50.5576H87.2009V35.6104H75.9504V50.5576H64.5925V13.0556H75.9504ZM144.826 21.5204V50.5576H134.112V21.5204H144.826ZM159.842 13.0556V31.003L168.467 21.5204H180.468L169.807 32.4495L180.95 50.5576H168.575L162.52 39.8963L159.842 42.6821V50.5576H149.127V13.0556H159.842ZM119.366 37.6999L117.008 38.0748C113.955 38.5569 112.883 39.5749 112.883 41.1822C112.883 42.7358 113.901 43.5394 115.401 43.5394C117.758 43.5394 119.366 41.9322 119.366 39.7356V37.6999ZM139.469 7.37675C142.63 7.37675 145.362 9.73403 145.362 12.8949C145.362 16.0022 142.63 18.4131 139.469 18.4131C136.362 18.4131 133.576 16.0022 133.576 12.8949C133.576 9.73403 136.362 7.37675 139.469 7.37675Z"/><g id="Group_2"><path id="Vector_2" fill="url(#paint0_linear_93_14884)" d="M43.998 5.34757L43.674 5.23246C43.5324 5.19844 43.3861 5.18513 43.2396 5.19334C43.0101 5.20618 42.7865 5.27164 42.5861 5.38462C40.364 6.29145 37.8945 7.3051 35.4368 8.3384C34.9939 8.52459 34.9958 9.15163 35.4392 9.33626L41.4014 11.8184C41.6036 11.9025 41.7352 12.1 41.7356 12.3188C41.7386 14.2716 41.7646 16.0996 41.7403 18.0551C41.7376 18.2702 41.6074 18.4631 41.4091 18.5464L25.7113 25.1559C25.3539 25.3062 24.9587 25.0438 24.9587 24.6561L24.9593 9.93505C24.9593 9.37028 24.6433 8.94099 24.1688 8.70174C24.1236 8.67748 24.0778 8.65456 24.0293 8.63434L16.1806 5.30982C15.9691 5.22 15.7397 5.17997 15.5102 5.19283C15.2807 5.20567 15.0572 5.27107 14.857 5.38394C12.7209 6.25573 10.171 7.30762 7.90286 8.25586C7.46417 8.43926 7.45859 9.0579 7.89347 9.25015L13.7364 11.8334C13.9327 11.92 14.0593 12.1146 14.0593 12.3292V31.117C14.1051 31.3219 14.1879 31.4976 14.2997 31.6426C14.4136 31.8326 14.6009 31.9998 14.8826 32.1331L32.1475 40.3492L32.2405 40.3855C32.4279 40.4792 32.6396 40.5312 32.8626 40.5312L32.963 40.5277C33.3197 40.5004 33.6527 40.3389 33.8953 40.0761C34.1379 39.8131 34.2718 39.4682 34.2705 39.1104V33.3136C34.2705 33.0773 34.4233 32.8684 34.6484 32.7969L41.0412 30.7652C41.3909 30.6541 41.7477 30.9151 41.7475 31.2821L41.7398 56.2006C41.7397 56.421 41.8731 56.6196 42.077 56.7028L42.3728 56.8235C42.4679 56.8621 42.5666 56.891 42.6674 56.9097C43.0729 57.0482 43.5147 57.0364 43.9121 56.8761L51.7395 53.6742C52.0401 53.5428 52.2444 53.3953 52.3725 53.2294C52.5685 53.0232 52.6891 52.7516 52.6891 52.3628V9.93639C52.6891 9.51519 52.4972 9.1708 52.204 8.92481C52.0772 8.80553 51.9276 8.70646 51.7592 8.63502L43.998 5.34757Z"/><path id="Vector_3" fill="url(#paint1_linear_93_14884)" d="M24.9921 45.5476C24.9941 45.3364 24.8733 45.1433 24.6827 45.0527L15.971 40.9125C15.8001 40.8405 15.6167 40.8031 15.4312 40.8025C15.2457 40.8018 15.062 40.838 14.8906 40.9087C14.7192 40.9796 14.5635 41.0837 14.4326 41.215C14.3017 41.3464 14.1981 41.5023 14.1278 41.674C14.0996 41.742 14.0767 41.8119 14.0593 41.8829V56.1981C14.0593 56.4144 14.1878 56.61 14.3863 56.6958L14.8422 56.8928C14.889 56.9119 14.9366 56.9286 14.9851 56.9427C15.3564 57.1234 15.7992 57.1516 16.2123 56.9832L23.9725 53.8911C24.2528 53.7758 24.4927 53.5796 24.6615 53.3279C24.8302 53.076 24.9205 52.7798 24.9208 52.4765C24.9248 52.4348 24.9262 52.393 24.9262 52.3505L24.9921 45.5476Z"/></g></g></g><defs><linearGradient id="paint0_linear_93_14884" x1="29.7165" x2="29.7165" y1="7.42445" y2="54.8224" gradientUnits="userSpaceOnUse"><stop stop-color="#F1CB2B"/><stop offset="1" stop-color="#D62B5F"/></linearGradient><linearGradient id="paint1_linear_93_14884" x1="29.7165" x2="29.7165" y1="7.42431" y2="54.8223" gradientUnits="userSpaceOnUse"><stop stop-color="#F1CB2B"/><stop offset="1" stop-color="#D62B5F"/></linearGradient></defs></svg>

<svg xmlns="http://www.w3.org/2000/svg" fill="none" aria-hidden="true" viewBox="0 0 218 63"><path fill="#000" d="M116.901 20.717c9.429 0 13.179 3.321 13.179 9.161v14.144c0 2.571.108 4.446.965 6.536h-10.286c-.536-.804-.911-1.768-1.126-2.786-1.875 2.571-4.5 3.536-8.089 3.536-6.054 0-9.483-3.697-9.483-8.894 0-5.732 3.268-9 12.644-10.179l4.661-.59v-1.124c0-1.982-.536-2.786-2.625-2.786-2.09 0-2.84.857-2.894 2.679h-10.661c.214-6.215 5.036-9.697 13.715-9.697Zm75.582.803v16.93c0 2.84 1.125 3.75 3.106 3.75 2.572 0 4.126-2.143 4.126-4.983V21.52h10.714v29.038H200.25v-3.643c-2.25 3-4.928 4.393-9 4.393-5.089 0-9.483-2.947-9.483-10.233V21.52h10.716ZM75.95 13.056V26.61h11.251V13.056h11.358v37.502H87.2V35.61H75.95v14.948H64.592V13.056H75.95Zm68.876 8.464v29.038h-10.714V21.52h10.714Zm15.016-8.464v17.947l8.625-9.483h12.001l-10.661 10.93 11.143 18.108h-12.375l-6.055-10.662-2.678 2.786v7.876h-10.715V13.056h10.715ZM119.366 37.7l-2.358.375c-3.053.482-4.125 1.5-4.125 3.107 0 1.554 1.018 2.357 2.518 2.357 2.357 0 3.965-1.607 3.965-3.803V37.7Zm20.103-30.323c3.161 0 5.893 2.357 5.893 5.518 0 3.107-2.732 5.518-5.893 5.518-3.107 0-5.893-2.41-5.893-5.518 0-3.161 2.786-5.518 5.893-5.518Z"/><path fill="url(#a)" d="m43.998 5.348-.324-.116a1.501 1.501 0 0 0-1.088.153 740.71 740.71 0 0 0-7.15 2.953.54.54 0 0 0 .003.998l5.962 2.482a.543.543 0 0 1 .335.5c.003 1.954.029 3.782.004 5.737a.54.54 0 0 1-.33.491l-15.699 6.61a.542.542 0 0 1-.752-.5V9.935c0-.565-.316-.994-.79-1.233a1.567 1.567 0 0 0-.14-.068L16.181 5.31a1.5 1.5 0 0 0-1.324.074 931.82 931.82 0 0 0-6.954 2.872.541.541 0 0 0-.01.994l5.843 2.583a.542.542 0 0 1 .323.496v18.788c.046.205.129.38.24.525.115.19.302.358.584.491l17.265 8.216.093.037c.187.093.399.145.622.145l.1-.003a1.415 1.415 0 0 0 1.308-1.418v-5.796a.54.54 0 0 1 .377-.517l6.393-2.032c.35-.111.707.15.707.517l-.008 24.919c0 .22.133.419.337.502l.296.12c.095.04.194.068.294.087a1.79 1.79 0 0 0 1.245-.034l7.828-3.202c.3-.131.504-.279.633-.445.196-.206.316-.477.316-.866V9.936c0-.42-.192-.765-.485-1.011a1.509 1.509 0 0 0-.445-.29L44 5.348Z"/><path fill="url(#b)" d="M24.992 45.548a.542.542 0 0 0-.31-.495l-8.71-4.14a1.402 1.402 0 0 0-1.913.97v14.315c0 .216.129.412.327.498l.456.197c.047.019.095.036.143.05a1.5 1.5 0 0 0 1.227.04l7.76-3.092a1.531 1.531 0 0 0 .949-1.414c.004-.042.005-.084.005-.127l.066-6.802Z"/><defs><linearGradient id="a" x1="29.716" x2="29.716" y1="7.424" y2="54.822" gradientUnits="userSpaceOnUse"><stop stop-color="#F1CB2B"/><stop offset="1" stop-color="#D62B5F"/></linearGradient><linearGradient id="b" x1="29.717" x2="29.717" y1="7.424" y2="54.822" gradientUnits="userSpaceOnUse"><stop stop-color="#F1CB2B"/><stop offset="1" stop-color="#D62B5F"/></linearGradient></defs></svg>
